X: 10
T: Humours Of Tulla, The
Z: Daithi_C
S: https://thesession.org/tunes/141#setting46502
R: reel
M: 4/4
L: 1/8
K: Gmaj
G2 DG EGDE|(3GAG BG AGEG|A2 EA FAEA|ABcd egdB|
G2 DG EGDE|(3GAG BG AGEG|cBcd efge|dBAB G2 z2|
g2 dg egdg|g2 dg egdg|a2 ea faea|a^g aba=g ef|
g2 dg egdg|g2 dg egdB|cBcd efge|dBAB G2 z2|

